X:422
T: KUCKUK KUCKUK RUFT AUS DEM WALD
N: F0776
O: Europa, Mitteleuropa, Deutschland
R: Geselligkeits -, Jahreszeiten - Lied, Fruehling
M: 3/4
L: 1/8
K: G
 | d4Bz | d4Bz |
dcB2A2 | G4z2 |
A2A2B2 | c4Az |
B2B2c2 | d4Bz |
d4Bz | d4Bz |
dcB2A2 | G4z2

@@@ Tune index: 5853
